X: 1
T:When the Battle Is Over
M:3/4
L:1/8
Q:80
C:P/M W. Robb
S:Retreat March
K:HP
|: {g}A3/2B/2{GdG}c2{ag}a2|
{fg}fe{gcd}c2{G}A2|
{g}A3/2B/2{GdG}c2{gef}e3/2c/2|  !
{gBd}B{G}A{GdG}B4|
{g}A3/2B/2{GdG}c2{ag}a2|
{fg}fe{gcd}c2{G}A2|  !
{g}A3/2B/2{GdG}c2{gef}e3/2c/2|
{g}B3/2c/2{G}A4:| |:
{gef}e3/2c/2{gBd}B2{G}A2|  !
{ag}a3/2g/2{fg}f2{g}e2|
{g}A3/2
